X: 36445
T: Second Granton Backstep, The
R: barndance
M: 4/4
K: Amajor
|:AB c6/ c Bd|c/B/G/ z/ A6/ B c2|BAA aagg A|deef f/e/c/ z/ e2|AB c2 a2 g2 -|g a f2 f/e/c/ z/ e2|
AB c2 a2 c2|c/B/G/ z/ E6:|:GA B6/ c d2|BG A6/ B c2|BAA aagg A|
deef f/e/c/ z/ e2|AB c2 a2 g2 -|g a f2 f/e/c/ z/ e2|AB c2 a2 c2|c/B/G/ z/ E6:|

